F[ERK2
CUT[UND WENN DIE FINSTRE NACHT THUT KOMMEN]
REG[Europa, Mitteleuropa, Schweiz, Bern]
KEY[E0828  16  A 2/4]
MEL[-5_  1__-5_-7_  1__-5_-7_  1__5__  3__1_
    1_  2__.5_  2__.1_  -7__-6__  -5__0__
    5__3_2_  3__.5_  5__4_3_  2__0__
    5_6_5_4_  3__1__  2_112_3_  1_1_1__
    5_6_5_4_  3__1__  2_112_3_  1_1_1_ //] >>
FCT[Kilt - Lied]
